X:1
T:Will You Let Them Die?
T:Will You Let Them Die?
T:Glenn Copeland
T:Sylvia Lee, 1913
T:Public Domain Courtesy of the Cyber Hymnal™
T:Public Domain Courtesy of the Cyber Hymnal™
C:Glenn Copeland
Z:Public Domain
Z:Courtesy of the Cyber Hymnal™
%%score ( 1 2 ) ( 3 4 )
L:1/8
Q:1/4=95
M:4/4
K:Bb
V:1 treble 
V:2 treble 
V:3 bass 
V:4 bass 
V:1
 [DF][DF] | [DB][DB][DB][Ec] [Fd][Fd][Fd][Fc] | [GB][GB][GB][Gc] [Fd]2 [DF][DF] | %3
w: 1.~In the|dist- ant lands of dark- ness bow- ing|down to wood and stone, Mil- lions|
w: 2.~There’s no|ray of light to cheer them, not a|vi- sion of the Lord, Or the|
w: 3.~All a-|round you souls are sink- ing, heed- less|of the liv- ing way, Can you|
w: 4.~With true|gra- ti- tude to Je- sus for His|mer- cies and His grace, Ev- er|
 [DB][DB][FB][Fc] [Fd][Fd][Fc][=EB] | [Fc]6 [EF][EF] | [DB][DB][DB][Ec] [Fd][Fd][Fd][Fc] | %6
w: have not heard of Christ who reigns on|high; For the|lost of ev- ery na- tion He has|
w: glo- ries that a- wait be- yond the|skies; Ere they|shall be- night- ed per- ish, send the|
w: spurn them, or the words of life de-|ny? Tell them|of the lov- ing Sav- ior who would|
w: seek His bless- èd name to glo- ri-|fy; Spend not|life in i- dle dream- ing, strive to|
 [GB][GB][GB][Gc] [Fd]2 [DF][DF] | [DB][DB][FB][Gc] [Fd][Fd][Ec][Ec] | [DB]6 z2 || %9
w: suf- fered to a- tone, In their|sin, oh! Christ- ians! will you let them|die?|
w: life sus- tain- ing Word, With- out|Christ, their Sav- ior, will you let them|die?|
w: wel- come them to- day, In their|guilt and weak- ness, will you let them|die?|
w: save the fall- en race, Speed sal-|va- tion’s mess- age— do not let them|die!|
"^Refrain" [DF][DF][DB][Ec] d4 | [Fd][Ge][Fd][Ec] B4 | FF[FB][Fc] d4 | %12
w: |||
w: Will you let them die|with- out hope of life?|Will you let them die,|
w: |||
w: |||
 [Ge][Fd][Fc][=EB] !fermata![Fc]2 [_EF][EF] | [DB][DB][DB][Ec] [Fd][Fd][Fd][Fc] | %14
w: ||
w: lost in sin and strife? While you|share God’s grace and love, And cher- ish|
w: ||
w: ||
 [GB][GB][GB][Gc] [Fd]2 [DF][DF] | [DB][DB][FB][Gc] [Fd][Fd][Ec][Ec] | B4- [FB]2 |] %17
w: |||
w: hopes of joy a- bove, Will you|let them die, Oh! will you let them|die? *|
w: |||
w: |||
V:2
 x2 | x8 | x8 | x8 | x8 | x8 | x8 | x8 | x8 || x4 (FGFF) | x4 (DD E2) | FF x (FGFF) x | x8 | x8 | %14
 x8 | x8 | DEFG x2 |] %17
V:3
 [B,,B,][B,,B,] | [B,,F,][B,,F,][B,,F,][B,,F,] [B,,B,][B,,B,][B,,B,][D,B,] | %2
w: ~ ~|~ ~ ~ ~ ~ ~ ~ ~|
 [E,B,][E,B,][E,B,][E,B,] [B,,B,]2 [B,,B,][B,,B,] | [B,,F,][B,,F,][D,B,][F,A,] B,B,[A,C][G,C] | %4
w: ~ ~ ~ ~ ~ ~ ~|~ ~ ~ ~ ~ ~ ~ ~|
 [F,A,]6 [F,A,][F,A,] | [B,,B,][B,,F,][B,,F,][B,,F,] [B,,B,][B,,B,][B,,B,][D,B,] | %6
w: ~ ~ ~|~ ~ ~ ~ ~ ~ ~ ~|
 [E,B,][E,B,][E,B,][E,B,] [B,,B,]2 [B,,B,][B,,B,] | %7
w: ~ ~ ~ ~ ~ ~ ~|
 [B,,F,][B,,F,][D,B,][E,B,] [F,B,][F,B,][F,A,][F,A,] | [B,,B,]6 z2 || %9
w: ~ ~ ~ ~ ~ ~ ~ ~|~|
 [B,,B,][B,,B,][B,,F,][B,,F,] [B,,B,][B,,B,][B,,B,][B,,B,] | B,B,B,[F,A,] [G,B,][G,B,] [E,G,]2 | %11
w: ~ ~ ~ ~ ~ in dark- ness|~ ~ ~ ~ fu- ture life?|
 [D,B,][D,B,][D,B,][C,A,] [B,,B,][B,,B,][B,,B,][B,,B,] | %12
w: ~ ~ ~ ~ ~ in dark- ness|
 B,B,[A,C][G,C] !fermata![F,A,]2 [F,A,][F,A,] | %13
w: ~ ~ ~ ~ ~ ~ ~|
 [B,,B,][B,,F,][B,,F,][B,,F,] [B,,B,][B,,B,][B,,B,][D,B,] | %14
w: ~ ~ ~ ~ ~ ~ ~ ~|
 [E,B,][E,B,][E,B,][E,B,] [B,,B,]2 [B,,B,][B,,B,] | %15
w: ~ ~ ~ ~ ~ ~ ~|
 [B,,F,][B,,F,][D,B,][E,B,] [F,B,][F,B,][F,A,][F,A,] | B,CDE [B,,D]2 |] %17
w: ~ ~ ~ ~ ~ ~ ~ ~|~ in dark- ness die?|
V:4
 x2 | x8 | x8 | x4 B,B, x2 | x8 | x8 | x8 | x8 | x8 || x8 | B,B,B, x5 | x8 | B,B, x6 | x8 | x8 | %15
 x8 | B,,4- x2 |] %17

